icons/svg/polymer.svg

﻿<?xml version="1.0" encoding="utf-8"?>
<!DOCTYPE svg PUBLIC "-//W3C//DTD SVG 1.1//EN" "http://www.w3.org/Graphics/SVG/1.1/DTD/svg11.dtd">
<svg xmlns="http://www.w3.org/2000/svg" xmlns:xlink="http://www.w3.org/1999/xlink" version="1.1" baseProfile="full" width="24" height="24" viewBox="0 0 24.00 24.00" enable-background="new 0 0 24.00 24.00" xml:space="preserve">
	<path fill="#000000" fill-opacity="1" stroke-width="0.2" stroke-linejoin="round" d="M 18.9994,3.99805L 14.9994,3.99805L 7.1044,16.6301L 4.49939,11.998L 8.99939,3.99805L 4.99939,3.99805L 0.49939,11.998L 4.99939,19.998L 8.99939,19.998L 16.8944,7.36603L 19.4994,11.998L 14.9994,19.998L 18.9994,19.998L 23.4994,11.998L 18.9994,3.99805 Z "/>
</svg>

<svg xmlns="http://www.w3.org/2000/svg" version="1.1" baseProfile="full" width="24" height="24" viewBox="0 0 24.00 24.00" xml:space="preserve"><path fill="#000" fill-opacity="1" stroke-width=".2" stroke-linejoin="round" d="M19 3.998h-4L7.103 16.63 4.5 11.998l4.5-8H5l-4.5 8 4.5 8h4l7.894-12.632 2.605 4.632-4.5 8h4l4.5-8-4.5-8z"/></svg>
